X: 17
T: Goteborgsk Mazurka
O: Scandinavia
F: http://www.youtube.com/watch?v=gxT7Q7B2s6g
M: 3/4
L: 1/8
Q: 1/4=120
K: G
%%MIDI program 41
%%MIDI chordprog 24
%%MIDI bassprog 26
  "G" B,DD GGB|Bc/B/AGA2|"D"AddcBA  |"G"G2 G2 z2       |
|:"G"B,DD GGB |Bc/B/AGA2|"D"Add cAF |"G"G2 A2 B2       |
  "G"B,DD GGB |Bc/B/AGA2|"D"Add cAF |"G"G2 G2 z2       :|
|:"G"Bd g2d2  |B2 GDGB  |"D"A2 Ad dc|"G"B>A B/c/B/A/ G2|
  Bd g2d2     |B2 GDGB  |"D"A2 Ad dc|"D"G2 G2 z2       :|



